X:3
T:Snow Deer
R:reel
C:Bob Wills?
D:From The Essential Texas Fiddle by Joe Stephenson
Z:Transcribed to abc by Debbie Knight, edited by Mary Lou Knack
M:C|
K:C
G2c2d2|"C"e2ed e2ef| e2c2 B2c2| "D"d2dc d2de | d2c2 B2A2|   "G7"G4 d4-| d2c2 B2A2| "C"G4 e4| e2G2 c2d2|
"C"e2e(d e2)ef| e2c2 B2c2| "D"d2dc d2de | d2c2 B2A2|   "G7"G4 d4-| d2c2 d2e2| "C"c8- | c2c2 "C7"d2e2|
"F"f4 A4-| A2c2 B2A2| "C"G4 e4-| e4 e3f|    "G"e2d2 d2cd-| d4 d3e| "C"d2c2 c2Bc-|c2c2 "C7"d2e2|
"F"f4 A4-| A2c2 B2A2| "C"G4 e4-| e4 e3f|    "G7"e2d2 d2cd-|d2f2 e2d2| "C"c8 |1 c2 :|2 "C"c8 |]
%%text tag line
_AAFA BBAB| ddBd f2f2| gef^f ge=f^f| g^f=fe-e4|
%%text 6/17/07
%%text 04/01/00

#include "RightHeader.h"
%%textfont       Times-Bold 13.0
%%text Set 56 (cont'd)
%%textfont       Times-Roman 7.0
%%topspace -.75cm
%%scale .85
$SmallLMargin
$SmallRMargin
